X:9
T:Tune
S:Connery's Corner Session, Paris
Z:robin.beech@mcgill.ca
R:schottische
M:4/4
L:1/8
K:G
d2B2G2AB | c2A2F3E | DEFG AFAB | cBAc B2G2 |
d2B2G2AB | c2A2F3E | DEFG AGAB | cBAF G4 ::
DEFG AFAB | cBAc B2G2 | ABAG FEDE | FGAB A4 |
DEFG AFAB | cBAc B2G2 | ABAG FEDE | FGAF G4 :|
